X: 11
T: JIGS: Kilmovee Set
T: Kilmovee
C: C: Trad.; S: Various
C: Set Leaders: Mars, Tania
Z: [Unedited]; Phantom Button / Jeremy at The Session
N: https://thesession.org/members/26966/sets/94271
R: Jig
M: 6/8
L: 1/8
Q: 3/8=116
K: Gmaj
|:~G3 ~B3|GAB AGE|DEG B/c/d g|ege dBA|
~G3 ~B3|ded AGE|DEG B/c/d g|1 edB G3:|2 edB G B/c/d||
|:g2B dBG|AGE GED|G B/c/d ~g3|eag fed|
~B3 dBA|GBG AGE|DEG B/c/d g|1 edB G B/c/d:|2 edB G||
T: Lilting Fisherman
K: Gmaj
Bc|:dBG GBd|~g3 ege|dBG GFG|AFD cBA|
dBG GBd|~g3 ege|dBG FGA|BGF G2B:||
K: Dmaj
|:ABA AFA|~f3 f2e|dce dcB|AFF F2G|
AFA A2d|BGB B2d|cBc ABc|1 dfe dcB:|2 dfe dB=c||

